images/email.svg

<svg xmlns="http://www.w3.org/2000/svg" viewBox="0 0 139.9 105" enable-background="new 0 0 139.9 105"><path d="M0 0h139.9v105h-139.9v-105zm16.3 9.3c17 17.2 33 33.6 49.2 49.8 3.3 3.3 6.7 2.8 10.4-1 15.4-15.4 30.8-30.9 46.1-46.4.6-.6 1-1.5 1.7-2.5-35.7.1-70.9.1-107.4.1zm-.3 86.3h108c-12.9-12-24.8-23.2-36.9-34.5-16.9 13.7-16.9 13.7-33.6-.3-12.4 11.4-24.5 22.7-37.5 34.8zm-6.4-9.3c11.6-10.9 23.6-22.1 35.3-33.1-12.3-12-24-23.4-35.3-34.4v67.5zm120.6-65.6c-10.6 10.3-22.3 21.6-34.6 33.6 11.3 10.7 23 21.7 34.6 32.6v-66.2z"/></svg>

<?xml version="1.0" encoding="utf-8"?>
<!-- Generator: Adobe Illustrator 18.1.0, SVG Export Plug-In . SVG Version: 6.00 Build 0)  -->
<svg version="1.1" id="Layer_1" xmlns="http://www.w3.org/2000/svg" xmlns:xlink="http://www.w3.org/1999/xlink" x="0px" y="0px"
	 viewBox="0 0 139.9 105" style="enable-background:new 0 0 139.9 105;" xml:space="preserve">
<g id="_x30_CHuGY_1_">
	<g>
		<path d="M0,0c46.7,0,93,0,139.9,0c0,34.9,0,69.8,0,105c-46.5,0-93,0-139.9,0C0,70,0,35.1,0,0z M16.3,9.3
			c17,17.2,33,33.6,49.2,49.8c3.3,3.3,6.7,2.8,10.4-1c15.4-15.4,30.8-30.9,46.1-46.4c0.6-0.6,1-1.5,1.7-2.5
			C88,9.3,52.8,9.3,16.3,9.3z M16,95.6c36.6,0,71.6,0,108,0c-12.9-12-24.8-23.2-36.9-34.5c-16.9,13.7-16.9,13.7-33.6-0.3
			C41.1,72.2,29,83.5,16,95.6z M9.6,86.3c11.6-10.9,23.6-22.1,35.3-33.1c-12.3-12-24-23.4-35.3-34.4C9.6,41,9.6,64.2,9.6,86.3z
			 M130.2,20.7C119.6,31,107.9,42.3,95.6,54.3C106.9,65,118.6,76,130.2,86.9C130.2,64.5,130.2,41.4,130.2,20.7z"/>
	</g>
</g>
</svg>
